!!!OTL: FREUDE SCHOENER GOETTERFUNKEN
!!!ARE: Europa, Mitteleuropa, Deutschland
!!!SCT: F0759
!!!YEM: Copyright 1995, estate of Helmut Schaffrath.
**kern
*ICvox
*Ivox
*M4/4
*k[]
*C:
{4c
4G
=1
4.e
8e
8e
8f
8d
8B
=2
4c
4G}
{4.g
8f
=3
8f
8e
8d
8c
4f
4e
=4
2d}
{4c
4G
=5
4.e
8e
8g
8f
8d
8B
=6
4c
4G}
{4.g
8f
=7
8f
8e
8d
8c
4f
4e
=8
2d}
{4.d
8c
=9
8B
8g
8f#
8e
4.d
8c
=10
4c
4B}
{4.e
8d
=11
8d
8c
8B
8A
4.d
8F#
=12
2G}
{4A
4B
=13
4c
4d
4.e
8f
=14
4e
4d}
{4.f
8e
=15
4d
4c
8d
8f
8G
8B
=16
2c}
{4.c
8G
=17
4.e
8e
8e
8f
8d
8B
=18
4c
4G}
{4.g
8f
=19
8f
8e
8d
8c
4f
4e
=20
2d}
{4.a
8g
=21
4f
4c
4f
4g
=22
2a}
{4.g
8f
=23
8f
8e
8d
8c
8d
8f
8G
8B
=24
4c
4C}
==
!!!AGN: Geselligkeits -, Bundes - Lied
!!!ONB: ESAC (Essen Associative Code) Database: FINK
!!!AMT: simple quadruple
!!!AIN: vox
!!!EED: Helmut Schaffrath
!!!EEV: 1.0
*-
